X:46
M:12/8
L:1/8
K:D
e2d B2A G2E G2f | gfe f2d e3 :| 
e2A | Bcd e2f g2e e2d | B2d d2B d3 d2A | 
bag agf gBf e2d | B2e e2d e3 e3 || 

